src/components/Icon/utils/svgsOptimized/message.svg

<?xml version="1.0" encoding="utf-8"?><svg width="24" height="24" xmlns="http://www.w3.org/2000/svg" viewBox="0 0 24 24"><path d="M17.5 4.75h-11C5.26 4.75 4.25 5.76 4.25 7v11.5c0 .29.17.56.43.68.1.05.21.07.32.07.17 0 .34-.06.48-.17l2.79-2.33h9.23c1.24 0 2.25-1.01 2.25-2.25V7c0-1.24-1.01-2.25-2.25-2.25ZM14 13H8c-.41 0-.75-.34-.75-.75s.34-.75.75-.75h6c.41 0 .75.34.75.75s-.34.75-.75.75Zm2-3H8c-.41 0-.75-.34-.75-.75s.34-.75.75-.75h8c.41 0 .75.34.75.75s-.34.75-.75.75Z"/></svg>

<svg width="24" height="24" viewBox="0 0 24 24"  xmlns="http://www.w3.org/2000/svg">
<path d="M17.5 4.75H6.5C5.26 4.75 4.25 5.76 4.25 7V18.5C4.25 18.79 4.42 19.06 4.68 19.18C4.78 19.23 4.89 19.25 5 19.25C5.17 19.25 5.34 19.19 5.48 19.08L8.27 16.75H17.5C18.74 16.75 19.75 15.74 19.75 14.5V7C19.75 5.76 18.74 4.75 17.5 4.75ZM14 13H8C7.59 13 7.25 12.66 7.25 12.25C7.25 11.84 7.59 11.5 8 11.5H14C14.41 11.5 14.75 11.84 14.75 12.25C14.75 12.66 14.41 13 14 13ZM16 10H8C7.59 10 7.25 9.66 7.25 9.25C7.25 8.84 7.59 8.5 8 8.5H16C16.41 8.5 16.75 8.84 16.75 9.25C16.75 9.66 16.41 10 16 10Z" />
</svg>
